svgs/sharp-solid/user-nurse.svg

<svg xmlns="http://www.w3.org/2000/svg" viewBox="0 0 448 512"><!--! Font Awesome Pro 6.6.0 by @fontawesome - https://fontawesome.com License - https://fontawesome.com/license (Commercial License) Copyright 2024 Fonticons, Inc. --><path d="M96 128l0-80L224 0 352 48l0 80-.3 0c.2 2.6 .3 5.3 .3 8l0 40c0 70.7-57.3 128-128 128s-128-57.3-128-128l0-40c0-2.7 .1-5.4 .3-8l-.3 0zm48 48c0 44.2 35.8 80 80 80s80-35.8 80-80l0-16-160 0 0 16zM126.1 320L224 424l97.9-104 62.1 0 64 192L0 512 64 320l62.1 0zM208 64l-24 0 0 32 24 0 0 24 32 0 0-24 24 0 0-32-24 0 0-24-32 0 0 24z"/></svg>

<svg xmlns="http://www.w3.org/2000/svg" viewBox="0 0 448 512"><!--! Font Awesome Pro 6.4.0 by @fontawesome - https://fontawesome.com License - https://fontawesome.com/license (Commercial License) Copyright 2023 Fonticons, Inc. --><path d="M96 128V48L224 0 352 48v80h-.3c.2 2.6 .3 5.3 .3 8v40c0 70.7-57.3 128-128 128s-128-57.3-128-128V136c0-2.7 .1-5.4 .3-8H96zm48 48c0 44.2 35.8 80 80 80s80-35.8 80-80V160H144v16zM126.1 320L224 424l97.9-104H384l64 192H0L64 320h62.1zM208 64H184V96h24v24h32V96h24V64H240V40H208V64z"/></svg>
